X:249
T:Moving Cloud
Z: id:dc-reel-229
M:C
L:1/8
K:G Major
GE|DGBG EGcG|DGBG AGEG|c3A Bdgb|aged cAFA|!
DGBG EGcG|DGBG AGEG|cBAc BAGB|AGEF G2:|!
Bc|d2bd adgd|d2bd adgd|e2c'e beae|e2c'e beae|!
d2bd adgd|d2bd adgd|cBAc BAGB|AGEF G2:|!
GA|Bdd2 edBA|Bdd2 edcB|cee2 fee2|fefe fedc|!
Bdd2 edBA|Bdd2 edcB|cBAc BAGB|AGEF G2:|!